site/public/static/about-principles-03.svg

<svg width="1344" height="759" viewBox="0 0 1344 759" xmlns="http://www.w3.org/2000/svg">
  <g clip-path="url(#Number=03__clip0)">
    <path d="M0 0h1344v759H0V0z" fill="#213A82"/>
    <path fill-rule="evenodd" clip-rule="evenodd" d="M553.305-305.15C245.954-248.782 170.124-93.596 167.913-90.008c-64.598 104.833-155.11 248.81-96.911 405.602 58.2 156.793 137.26 232.182 309.781 276.294C553.305 636 628.178 509.295 764.057 472.843c145.989-39.164 267.873-76.602 338.083-184.546 70.22-107.945 19.99-272.73-13.59-398.226-32.73-122.359-227.894-251.589-535.245-195.221z" fill="#577FFB"/>
    <path fill-rule="evenodd" clip-rule="evenodd" d="M334.98-6.18c-9.384-35.081-42.66-72.693-98.076-97.308-55.201-24.52-131.792-35.804-226.164-18.496-94.512 17.333-152.937 49.757-187.745 77.705-32.625 26.196-44.787 48.65-46.706 52.192-.124.229-.205.379-.246.446l-.704 1.142c-40.615 65.908-93.452 151.647-58.974 244.531 17.233 46.426 62.854 87.93 105.92 118.426 21.348 15.117 41.706 27.278 56.938 35.743 7.612 4.23 13.928 7.528 18.43 9.803a312.557 312.557 0 005.31 2.624c.94.451 1.482.701 1.707.805.111.051.144.066.11.052 30.262 11.999 65.798.823 106.642-18.317 11.19-5.243 22.114-10.742 33.25-16.346 9.4-4.731 18.952-9.538 28.94-14.331 21.209-10.179 43.012-19.58 64.892-25.45 91.447-24.532 164.15-47.309 205.965-111.591 20.368-31.313 23.659-71.528 18.768-114.667-4.356-38.426-15.036-77.97-24.763-113.987-1.183-4.38-2.352-8.708-3.494-12.976zm-565.5 9.894c4.073-7.495 54.071-99.501 239.817-133.567C200.749-164.965 322.32-84.466 342.708-8.247c1.138 4.25 2.305 8.573 3.49 12.96 20.606 76.27 46.337 171.515 4.977 235.099-43.738 67.24-119.66 90.56-210.598 114.956-30.782 8.257-61.808 23.861-92.083 39.087-52.972 26.642-103.642 52.125-146.663 35.067-3.416-1.354-156.713-74.438-192.966-172.106-35.844-96.566 18.867-185.327 58.999-250.434l1.368-2.22c.041-.067.123-.217.248-.448z" fill="#87A4FC"/>
    <path fill-rule="evenodd" clip-rule="evenodd" d="M568.503 307.318l.031-.046c28.712-42.425 74.521-62.472 133.651-62.472 59.1 0 104.774 20.033 133.121 62.517 27.411 40.529 40.239 94.637 40.239 160.683 0 66.748-12.811 121.248-40.239 161.803-28.347 42.484-74.021 62.517-133.121 62.517-59.13 0-104.939-20.047-133.651-62.472l-.031-.046-.031-.047c-27.028-40.542-39.647-95.02-39.647-161.755 0-66.033 12.636-120.118 39.647-160.635l.031-.047zM822.025 620.88c25.013-36.96 37.52-87.92 37.52-152.88 0-64.213-12.507-114.8-37.52-151.76-24.64-36.96-64.587-55.44-119.84-55.44s-95.387 18.48-120.4 55.44c-24.64 36.96-36.96 87.547-36.96 151.76 0 64.96 12.32 115.92 36.96 152.88 25.013 36.96 65.147 55.44 120.4 55.44s95.2-18.48 119.84-55.44zm-83.717-233.69l-.019-.048c-2.97-7.424-7.143-12.22-12.32-15.349-5.357-3.237-12.97-5.393-23.784-5.393-10.814 0-18.427 2.156-23.784 5.393-5.177 3.129-9.351 7.925-12.32 15.349l-.019.048-.02.047c-7.06 17.329-11.137 43.834-11.137 80.763 0 24.839 1.467 44.908 4.228 60.45 2.562 14.065 7.465 24.639 14.111 32.492 5.468 5.776 14.228 9.778 28.941 9.778 14.934 0 23.351-4.113 28.361-9.75l.012-.013.012-.013c7.018-7.861 12.104-18.423 14.667-32.494 2.761-15.542 4.228-35.611 4.228-60.45 0-36.929-4.077-63.434-11.138-80.763l-.019-.047zm22.677 144.09c-2.987 16.427-9.147 29.867-18.48 40.32-8.96 10.08-22.4 15.12-40.32 15.12s-31.547-5.04-40.88-15.12c-8.96-10.453-14.933-23.893-17.92-40.32-2.987-16.8-4.48-37.893-4.48-63.28 0-37.707 4.107-66.64 12.32-86.8 8.213-20.533 25.2-30.8 50.96-30.8s42.747 10.267 50.96 30.8c8.213 20.16 12.32 49.093 12.32 86.8 0 25.387-1.493 46.48-4.48 63.28zm135.903-130.72l.621-16.598c1.619-43.306 15.984-78.65 44.627-103.821 28.316-24.884 65.864-36.461 110.804-36.461 29.78 0 56.19 5.154 78.67 16.17 22.5 10.841 40.12 26.03 52.02 45.805 12.08 19.456 18.03 41.231 18.03 64.905 0 27.359-6.89 51.254-21.9 70.365l-.06.074-.06.073c-6.76 8.401-14.19 15.647-22.28 21.647 11.58 7.337 21.59 16.527 29.9 27.601 14.87 19.835 21.68 44.552 21.68 72.88 0 25.729-6.05 49.168-18.52 69.833-12.22 20.484-30.17 36.277-53.1 47.543-22.84 11.41-49.47 16.784-79.34 16.784-47.41 0-87.183-11.687-117.664-36.664l-.042-.035-.042-.035c-30.976-25.741-46.166-63.865-47.766-111.448l-.555-16.538h125.149l.35 15.636c.31 13.431 4 22.404 9.66 28.593 5.05 5.203 13.34 8.971 27.55 8.971 11.49 0 18-3.15 22.02-7.368l.01-.006.01-.006c4.9-5.127 7.88-12.128 7.88-22.54 0-14.289-4.38-21.361-10.34-25.393l-.24-.168-.24-.177c-7.01-5.14-20.86-9.222-44.86-9.222h-33.923V411.12h33.923c17.41 0 29.75-2.923 38.14-7.505 5.67-3.212 9.7-8.791 9.7-21.295 0-10.412-2.81-16.342-6.52-20.046-3.78-3.787-9.59-6.514-19.48-6.514-10.69 0-16.19 3.051-19.46 6.92-4.43 5.74-7.4 13.249-8.28 23.286l-1.29 14.594H896.888zm118.532 187.28c-8.96-9.707-13.63-22.773-14-39.2h-92.963c.185 5.505.563 10.839 1.132 16 4.024 36.49 17.646 64.383 40.868 83.68 26.88 22.027 62.723 33.04 107.523 33.04 28 0 52.08-5.04 72.24-15.12 20.53-10.08 36.02-23.893 46.48-41.44 10.82-17.92 16.24-38.453 16.24-61.6 0-25.76-6.16-46.853-18.48-63.28-8.65-11.526-19.5-20.754-32.55-27.685-5.3-2.813-10.96-5.248-16.99-7.304-.29-.098-.57-.195-.86-.291v-2.24a85.82 85.82 0 0017.35-8.186c9.41-5.793 18-13.518 25.77-23.174 12.32-15.68 18.48-35.84 18.48-60.48 0-20.907-5.23-39.76-15.68-56.56-10.08-16.8-25.2-30.053-45.36-39.76-19.79-9.707-43.68-14.56-71.68-14.56-42.19 0-75.603 10.827-100.243 32.48-21.243 18.668-33.883 44.135-37.922 76.4a184.212 184.212 0 00-1.278 16h93.523c1.12-12.693 5.04-23.333 11.76-31.92 7.09-8.587 17.73-12.88 31.92-12.88 13.06 0 23.33 3.733 30.8 11.2 7.46 7.467 11.2 17.92 11.2 31.36 0 16.8-5.98 28.56-17.92 35.28-11.58 6.347-26.88 9.52-45.92 9.52h-17.92v77.84h17.92c25.01 0 43.12 4.107 54.32 12.32 11.57 7.84 17.36 20.72 17.36 38.64 0 13.813-4.11 25.013-12.32 33.6-7.84 8.213-19.04 12.32-33.6 12.32-17.18 0-30.24-4.667-39.2-14z" fill="#fff"/>
  </g>
  <defs>
    <clipPath id="Number=03__clip0">
      <path d="M0 0h1344v759H0V0z" fill="#fff"/>
    </clipPath>
  </defs>
</svg>

<svg width="1344" height="759" viewBox="0 0 1344 759" fill="none" xmlns="http://www.w3.org/2000/svg">
<g clip-path="url(#clip0)">
<path d="M0 0H1344V759H0V0Z" fill="#2B4AAB"/>
<path fill-rule="evenodd" clip-rule="evenodd" d="M553.305 -305.151C245.954 -248.783 170.124 -93.5963 167.913 -90.0081C103.315 14.8251 12.8019 158.801 71.0017 315.594C129.201 472.387 208.261 547.776 380.783 591.888C553.304 635.999 628.178 509.294 764.057 472.843C910.046 433.679 1031.93 396.241 1102.14 288.297C1172.36 180.352 1122.13 15.5663 1088.55 -109.929C1055.82 -232.288 860.656 -361.519 553.305 -305.151Z" fill="#577FFB"/>
<path fill-rule="evenodd" clip-rule="evenodd" d="M334.98 -6.17958L334.98 -6.18002C325.596 -41.2615 292.32 -78.8726 236.904 -103.488C181.703 -128.008 105.112 -139.292 10.7398 -121.984C-83.7722 -104.651 -142.197 -72.2268 -177.005 -44.2787C-209.63 -18.0831 -221.792 4.37014 -223.711 7.91264C-223.835 8.14168 -223.916 8.29166 -223.957 8.35849L-224.661 9.501C-265.276 75.4085 -318.113 161.148 -283.635 254.032C-266.402 300.457 -220.781 341.962 -177.715 372.458C-156.367 387.574 -136.009 399.736 -120.777 408.201C-113.165 412.431 -106.849 415.729 -102.347 418.004C-100.095 419.141 -98.3041 420.019 -97.0377 420.628C-96.097 421.079 -95.5548 421.329 -95.3302 421.433C-95.219 421.484 -95.1856 421.499 -95.2204 421.485C-64.9578 433.484 -29.4218 422.308 11.4224 403.168C22.6116 397.925 33.5361 392.426 44.6711 386.822C54.0723 382.091 63.6237 377.284 73.6112 372.491C94.8205 362.312 116.624 352.91 138.504 347.041C229.951 322.509 302.654 299.732 344.469 235.45C364.837 204.137 368.128 163.922 363.237 120.783C358.881 82.3569 348.201 42.8135 338.474 6.79553C337.291 2.41558 336.122 -1.91224 334.98 -6.17958ZM-230.52 3.7143C-226.447 -3.78117 -176.449 -95.7872 9.29666 -129.853C200.749 -164.965 322.321 -84.4663 342.708 -8.24718C343.846 -3.99659 345.013 0.326345 346.198 4.71203C366.804 80.9832 392.535 176.228 351.175 239.812C307.437 307.052 231.515 330.372 140.577 354.768C109.795 363.025 78.7686 378.629 48.4941 393.855C-4.47826 420.497 -55.1475 445.98 -98.169 428.922C-101.585 427.568 -254.882 354.484 -291.135 256.816C-326.979 160.25 -272.268 71.489 -232.136 6.38214C-231.678 5.63891 -231.222 4.89874 -230.768 4.16169C-230.727 4.09508 -230.645 3.94457 -230.52 3.7143Z" fill="#87A4FC"/>
<path fill-rule="evenodd" clip-rule="evenodd" d="M568.503 307.318L568.534 307.272C597.246 264.847 643.055 244.8 702.185 244.8C761.285 244.8 806.959 264.833 835.306 307.317C862.717 347.846 875.545 401.954 875.545 468C875.545 534.747 862.734 589.248 835.306 629.803C806.959 672.287 761.285 692.32 702.185 692.32C643.055 692.32 597.246 672.273 568.534 629.847L568.503 629.801L568.472 629.755C541.444 589.213 528.825 534.735 528.825 468C528.825 401.967 541.461 347.881 568.472 307.364L568.503 307.318ZM822.025 620.88C847.038 583.92 859.545 532.96 859.545 468C859.545 403.786 847.038 353.2 822.025 316.24C797.385 279.28 757.438 260.8 702.185 260.8C646.932 260.8 606.798 279.28 581.785 316.24C557.145 353.2 544.825 403.786 544.825 468C544.825 532.96 557.145 583.92 581.785 620.88C606.798 657.84 646.932 676.32 702.185 676.32C757.438 676.32 797.385 657.84 822.025 620.88ZM738.308 387.189L738.289 387.142C735.319 379.717 731.146 374.922 725.969 371.793C720.612 368.555 712.999 366.4 702.185 366.4C691.371 366.4 683.758 368.555 678.401 371.793C673.224 374.922 669.05 379.717 666.081 387.142L666.062 387.189L666.042 387.236C658.982 404.566 654.905 431.071 654.905 468C654.905 492.838 656.372 512.907 659.133 528.45C661.695 542.515 666.598 553.088 673.244 560.942C678.712 566.718 687.472 570.72 702.185 570.72C717.119 570.72 725.536 566.606 730.546 560.97L730.558 560.957L730.57 560.943C737.588 553.083 742.674 542.521 745.237 528.45C747.998 512.907 749.465 492.838 749.465 468C749.465 431.071 745.388 404.566 738.327 387.236L738.308 387.189ZM760.985 531.28C757.998 547.706 751.838 561.146 742.505 571.6C733.545 581.68 720.105 586.72 702.185 586.72C684.265 586.72 670.638 581.68 661.305 571.6C652.345 561.146 646.372 547.706 643.385 531.28C640.398 514.48 638.905 493.386 638.905 468C638.905 430.293 643.012 401.36 651.225 381.2C659.438 360.666 676.425 350.4 702.185 350.4C727.945 350.4 744.932 360.666 753.145 381.2C761.358 401.36 765.465 430.293 765.465 468C765.465 493.386 763.972 514.48 760.985 531.28ZM896.888 400.56L897.509 383.962C899.128 340.656 913.493 305.312 942.136 280.141C970.452 255.257 1008 243.68 1052.94 243.68C1082.72 243.68 1109.13 248.834 1131.61 259.849C1154.11 270.691 1171.73 285.88 1183.63 305.655C1195.71 325.11 1201.66 346.886 1201.66 370.56C1201.66 397.919 1194.77 421.813 1179.76 440.925L1179.7 440.999L1179.64 441.072C1172.88 449.473 1165.45 456.718 1157.36 462.719C1168.94 470.055 1178.95 479.245 1187.26 490.32C1202.13 510.154 1208.94 534.871 1208.94 563.2C1208.94 588.929 1202.89 612.368 1190.42 633.033C1178.2 653.517 1160.25 669.309 1137.32 680.576C1114.48 691.986 1087.85 697.36 1057.98 697.36C1010.57 697.36 970.797 685.672 940.316 660.695L940.274 660.661L940.232 660.625C909.256 634.885 894.066 596.76 892.466 549.177L891.911 532.64H1017.06L1017.41 548.276C1017.72 561.707 1021.41 570.679 1027.07 576.868C1032.12 582.072 1040.41 585.84 1054.62 585.84C1066.11 585.84 1072.62 582.69 1076.64 578.472L1076.65 578.466L1076.66 578.46C1081.56 573.333 1084.54 566.331 1084.54 555.92C1084.54 541.631 1080.16 534.559 1074.2 530.526L1073.96 530.359L1073.72 530.182C1066.71 525.042 1052.86 520.96 1028.86 520.96H994.937V411.12H1028.86C1046.27 411.12 1058.61 408.196 1067 403.614C1072.67 400.403 1076.7 394.824 1076.7 382.32C1076.7 371.908 1073.89 365.977 1070.18 362.273C1066.4 358.486 1060.59 355.76 1050.7 355.76C1040.01 355.76 1034.51 358.811 1031.24 362.679C1026.81 368.419 1023.84 375.928 1022.96 385.966L1021.67 400.56H896.888ZM1015.42 587.84C1006.46 578.133 1001.79 565.066 1001.42 548.64H908.457C908.642 554.145 909.02 559.478 909.589 564.64C913.613 601.129 927.235 629.023 950.457 648.32C977.337 670.346 1013.18 681.36 1057.98 681.36C1085.98 681.36 1110.06 676.32 1130.22 666.24C1150.75 656.16 1166.24 642.346 1176.7 624.8C1187.52 606.88 1192.94 586.346 1192.94 563.2C1192.94 537.44 1186.78 516.346 1174.46 499.92C1165.81 488.394 1154.96 479.166 1141.91 472.235C1136.61 469.422 1130.95 466.987 1124.92 464.931C1124.63 464.833 1124.35 464.736 1124.06 464.64V462.4C1124.34 462.304 1124.62 462.206 1124.9 462.107C1130.66 460.077 1136.16 457.446 1141.41 454.214C1150.82 448.42 1159.41 440.696 1167.18 431.04C1179.5 415.36 1185.66 395.2 1185.66 370.56C1185.66 349.653 1180.43 330.8 1169.98 314C1159.9 297.2 1144.78 283.946 1124.62 274.24C1104.83 264.533 1080.94 259.68 1052.94 259.68C1010.75 259.68 977.337 270.506 952.697 292.16C931.454 310.828 918.814 336.294 914.775 368.56C914.129 373.719 913.703 379.053 913.497 384.56H1007.02C1008.14 371.866 1012.06 361.226 1018.78 352.64C1025.87 344.053 1036.51 339.76 1050.7 339.76C1063.76 339.76 1074.03 343.493 1081.5 350.96C1088.96 358.426 1092.7 368.88 1092.7 382.32C1092.7 399.12 1086.72 410.88 1074.78 417.6C1063.2 423.946 1047.9 427.12 1028.86 427.12H1010.94V504.96H1028.86C1053.87 504.96 1071.98 509.066 1083.18 517.28C1094.75 525.12 1100.54 538 1100.54 555.92C1100.54 569.733 1096.43 580.933 1088.22 589.52C1080.38 597.733 1069.18 601.84 1054.62 601.84C1037.44 601.84 1024.38 597.173 1015.42 587.84Z" fill="white"/>
</g>
<defs>
<clipPath id="clip0">
<path d="M0 0H1344V759H0V0Z" fill="white"/>
</clipPath>
</defs>
</svg>
